apps/symbolic/gnome-logs-symbolic.svg

<svg height="24" viewBox="0 0 24 24" width="24" xmlns="http://www.w3.org/2000/svg"><path d="m12.818182 11.590909h5.727273v1.227272h-5.727273m0-3.2727266h5.727273v1.2272726h-5.727273m0 2.863636h5.727273v1.227273h-5.727273m6.545454-9.8181815h-14.7272724a1.6363636 1.6363636 0 0 0 -1.6363636 1.6363636v10.6363629a1.6363636 1.6363636 0 0 0 1.6363636 1.636364h14.7272724a1.6363636 1.6363636 0 0 0 1.636364-1.636364v-10.6363629a1.6363636 1.6363636 0 0 0 -1.636364-1.6363636m0 12.2727265h-7.363636v-10.6363629h7.363636" fill="#bebebe" stroke-width=".818182"/></svg>

<?xml version="1.0" encoding="UTF-8" standalone="no"?>
<svg
   xmlns:dc="http://purl.org/dc/elements/1.1/"
   xmlns:cc="http://creativecommons.org/ns#"
   xmlns:rdf="http://www.w3.org/1999/02/22-rdf-syntax-ns#"
   xmlns:svg="http://www.w3.org/2000/svg"
   xmlns="http://www.w3.org/2000/svg"
   xmlns:sodipodi="http://sodipodi.sourceforge.net/DTD/sodipodi-0.dtd"
   xmlns:inkscape="http://www.inkscape.org/namespaces/inkscape"
   version="1.1"
   width="24"
   height="24"
   viewBox="0 0 24 24"
   id="svg2"
   inkscape:version="0.92.1 r15371"
   sodipodi:docname="gnome-logs-symbolic.svg">
  <metadata
     id="metadata10">
    <rdf:RDF>
      <cc:Work
         rdf:about="">
        <dc:format>image/svg+xml</dc:format>
        <dc:type
           rdf:resource="http://purl.org/dc/dcmitype/StillImage" />
      </cc:Work>
    </rdf:RDF>
  </metadata>
  <defs
     id="defs8" />
  <sodipodi:namedview
     pagecolor="#ffffff"
     bordercolor="#666666"
     borderopacity="1"
     objecttolerance="10"
     gridtolerance="10"
     guidetolerance="10"
     inkscape:pageopacity="0"
     inkscape:pageshadow="2"
     inkscape:window-width="640"
     inkscape:window-height="480"
     id="namedview6"
     showgrid="false"
     inkscape:zoom="25.291667"
     inkscape:cx="4.9621087"
     inkscape:cy="12"
     inkscape:current-layer="svg2" />
  <path
     d="m 12.818182,11.590909 h 5.727273 v 1.227272 h -5.727273 m 0,-3.2727266 h 5.727273 v 1.2272726 h -5.727273 m 0,2.863636 h 5.727273 v 1.227273 H 12.818182 M 19.363636,5.0454545 H 4.6363636 A 1.6363636,1.6363636 0 0 0 3,6.6818181 V 17.318181 a 1.6363636,1.6363636 0 0 0 1.6363636,1.636364 H 19.363636 A 1.6363636,1.6363636 0 0 0 21,17.318181 V 6.6818181 A 1.6363636,1.6363636 0 0 0 19.363636,5.0454545 m 0,12.2727265 H 12 V 6.6818181 h 7.363636"
     id="path4"
     style="fill:#bebebe;fill-opacity:1;stroke-width:0.81818181"
     inkscape:connector-curvature="0" />
</svg>
